X:1
T:Bella's Lullaby
T:Bella's Lullaby 
T:Anthony Ajello
C:Anthony Ajello
%%score 1 { 2 | 3 }
L:1/8
Q:1/4=70
M:4/4
K:C
V:1 alto nm="Viola" snm="Vla."
V:2 treble nm="Piano" snm="Pno."
V:3 bass 
V:1
 z2 | _E!mf!DCA, G,C=E,!fermata!D, | _EDCA, G, C3 | G3 A- !fermata!A4 | z[Q:1/4=95] _EDC A,G,C=E, | %5
 D,6 _E,F, | F,6 C,D, | D,8 | z _EDC A,G,C=E, | D,4- D,2 _E,F,- | F,B, C4 ^GA- | A2 C D2 CDE- | %12
 E B2 E2 CB,A,- | A, B2 E2 CDE- | EBA G2 FED- | DCB, G,4 E, | z _EDC A,G,CE, | D,8 | %18
 z B,B,F FB,B,D | E8- | E6- EC/D/ | EG,G,F, F,E,E,D, | A,,A,,C,C, E,E,G,G, | z G,G,F, F,E,E,D, | %24
 A,,A,,C,C, E,E,A,A, | B,G,G,F, F,E,E,D, | C,C,F,F, A,A,DD | EG,G,F, F,E,E,D, | C,C,F,F, A,A,DD | %29
 z DDC A,A,G,E, | D,8 | z A,A,C CEEG | G8 | z DDC A,A,G,E, | D,6- D,D/E/ ||[K:D] FA,A,G, G,F,F,E, | %36
 B,,B,,D,D, F,F,A,A, | CA,A,G, G,F,F,E, | D,D,G,G, B,B,EE | FA,A,G, G,F,F,E, | D,D,G,G, B,B,EE | %41
 !fermata!F8 |] %42
V:2
 z2 | _E!mf!DCA, G,C=E,!fermata!D, | _EDCA, G, C3 | G3 A- !fermata!A4 | z _EDC A,G,C=E, | %5
 D,6 _E,F, | F,6 C,D, | D,8 | z _EDC A,G,C=E, | D,4- D,2 _E,F,- | F,B, C4 ^GA- | A2 C D2 CDE- | %12
 E B2 E2 CB,A,- | A, B2 E2 CDE- | EBA G2 FED- | DCB, G,4 E, | z _EDC A,G,CE, | D,8 | %18
 z B,B,F FB,B,D | E8- | E6- EC/D/ | EG,G,F, F,E,E,D, | A,,A,,C,C, E,E,G,G, | z G,G,F, F,E,E,D, | %24
 A,,A,,C,C, E,E,A,A, | [E,B,][C,G,][C,G,][A,,F,] [A,,F,][G,,E,][G,,E,][F,,D,] | %26
 [F,,C,][F,,C,][A,,F,][A,,F,] [E,A,][E,A,][A,D][A,D] | %27
 [B,E][C,G,][C,G,][A,,F,] [A,,F,][G,,E,][G,,E,][F,,D,] | %28
 [F,,C,][F,,C,][A,,F,][A,,F,] [E,A,][E,A,][A,D][A,D] | z DDC A,A,G,E, | D,8 | %31
 z [C,A,][C,A,][E,C] [E,C][G,E][G,E][B,G] | [B,G]8 | z [F,D][F,D][E,C] [C,A,][C,A,][B,,G,][G,,E,] | %34
 [G,,D,]6- [G,,D,]D/E/ ||[K:D] FA,A,G, G,F,F,E, | B,,B,,D,D, [B,,F,][B,,F,]A,A, | %37
 [F,C][D,A,][D,A,][B,,G,] [B,,G,][A,,F,][A,,F,][G,,E,] | %38
 [G,,D,][G,,D,][B,,G,][B,,G,] [F,B,][F,B,][B,E][B,E] | %39
 [CF][D,A,][D,A,][B,,G,] [B,,G,][A,,F,][A,,F,][G,,E,] | %40
 [G,,D,][G,,D,][B,,G,][B,,G,] [F,B,][F,B,][B,E][B,E] | !fermata![F,B,F]8 |] %42
V:3
 z2 |!ped! z8!ped-up! |!ped! z8 | z8!ped-up! | %4
!ped! [D,,,A,,,E,,]3 [D,,,A,,,D,,]4- [D,,,A,,,D,,]!ped-up! | %5
!ped! [D,,,A,,,E,,]3 [D,,,A,,,D,,]4- [D,,,A,,,D,,]!ped-up! | %6
!ped! [F,,,,C,,,G,,,]3 [F,,,,C,,,A,,,]4- [F,,,,C,,,A,,,]!ped-up! | %7
!ped! [D,,,A,,,E,,]3 [D,,,A,,,D,,]4- [D,,,A,,,D,,]!ped-up! | %8
!ped! [D,,,A,,,E,,]3 [D,,,A,,,D,,]4- [D,,,A,,,D,,]!ped-up! | %9
!ped! [D,,,A,,,E,,]3 [D,,,A,,,D,,]4- [D,,,A,,,D,,]!ped-up! | %10
!ped! [F,,,,C,,,G,,,]3 [F,,,,C,,,A,,,]4- [F,,,,C,,,A,,,]!ped-up! | %11
!ped! [D,,,A,,,E,,]4 [D,,,A,,,D,,]3- [D,,,A,,,D,,]!ped-up! | %12
!ped! [C,,,G,,,D,,]3 [C,,,G,,,C,,]4- [C,,,G,,,C,,]!ped-up! | %13
!ped! [F,,,,C,,,G,,,]3 [F,,,,C,,,A,,,]4- [F,,,,C,,,A,,,]!ped-up! | %14
!ped! [C,,,G,,,D,,]3 [C,,,G,,,C,,]4- [C,,,G,,,C,,]!ped-up! | %15
!ped! [F,,,,C,,,G,,,]3 [F,,,,C,,,A,,,]4- [F,,,,C,,,A,,,]!ped-up! | %16
!ped! [D,,,A,,,E,,]3 [D,,,A,,,D,,]4- [D,,,A,,,D,,]!ped-up! | %17
!ped! [D,,,A,,,E,,]3 [D,,,A,,,D,,]4- [D,,,A,,,D,,]!ped-up! | %18
!ped! [E,,,C,,E,,]3 [F,,,C,,F,,]2 [G,,,D,,G,,]2- [G,,,D,,G,,] | !arpeggio![A,,,E,,A,,]8- | %20
 [A,,,E,,A,,]8!ped-up! | C,,,!ped!G,,, E,,3 C,,, G,,,2!ped-up! | %22
!ped! F,,,,C,,, A,,,3 F,,, C,,2!ped-up! |!ped! F,,,,C,,, F,,,3 C,,, G,,,2!ped-up! | %24
!ped! A,,,,E,,, A,,,3 A,,,, D,,,2!ped-up! |!ped! C,,,G,,, C,,3 C,,, F,,,2!ped-up! | %26
!ped! F,,,,C,,, F,,,3 A,,,, E,,,2!ped-up! |!ped! C,,,G,,, C,,3 C,,, F,,,2!ped-up! | %28
!ped! F,,,,C,,, F,,,3 A,,,, E,,,2!ped-up! |!ped! [_B,,,,D,,,F,,,_B,,,]4 [C,,,G,,,C,,]4!ped-up! | %30
!ped! [D,,,A,,,D,,]8!ped-up! |!ped! [F,,,,C,,,F,,,]4 [A,,,,E,,,A,,,]4!ped-up! | %32
!ped! [D,,,G,,,B,,,]8!ped-up! |!ped! [_B,,,,D,,,F,,,_B,,,]4 [C,,,G,,,C,,]4!ped-up! | %34
!ped! [D,,,G,,,D,,]8!ped-up! ||[K:D]!ped! D,,,A,,, F,,3 D,,, A,,,2!ped-up! | %36
!ped! G,,,,D,,, B,,,3 G,,, D,,2!ped-up! |!ped! D,,,A,,, F,,3 D,,, A,,,2!ped-up! | %38
!ped! G,,,,D,,, B,,,3 G,,, D,,2!ped-up! |!ped! B,,,,F,,, D,,3 D,,, A,,,2!ped-up! | %40
!ped! E,,,B,,, F,,3 E,,, B,,,2!ped-up! |!ped! !fermata![B,,,,,B,,,,]8!ped-up! |] %42

